summit/2017/assets/img/sponsors/sticker-mule-i-big.svg

<svg xmlns="http://www.w3.org/2000/svg" width="408" height="56" viewBox="0 0 408 56"><g fill="none" fill-rule="evenodd"><path fill="#4C2418" d="M81.956 52.121c-5.75 0-10.94-.632-15.569-5.261l5.962-5.96c3.015 3.015 6.943 3.436 9.747 3.436 3.157 0 6.453-1.052 6.453-3.787 0-1.823-.982-3.085-3.857-3.366l-5.752-.561c-6.591-.631-10.658-3.506-10.658-10.239 0-7.574 6.662-11.641 14.094-11.641 5.682 0 10.451.982 13.957 4.277l-5.61 5.681c-2.104-1.893-5.33-2.455-8.487-2.455-3.646 0-5.188 1.684-5.188 3.506 0 1.333.56 2.876 3.786 3.156l5.751.563c7.223.699 10.87 4.558 10.87 10.728 0 8.066-6.872 11.923-15.499 11.923m31.415-.421c-7.434 0-10.59-5.259-10.59-10.45V23.157h-3.856v-6.942h3.856V5.414h9.117v10.801h6.452v6.942h-6.452V40.69c0 2.103.982 3.296 3.156 3.296h3.296V51.7h-4.979m9.17 0h9.118V15.163h-9.118V51.7zm-.14-42.78h9.328V1.488h-9.328V8.92zm29.859 43.201c-7.293 0-16.339-3.929-16.339-18.725 0-14.797 9.046-18.654 16.339-18.654 5.05 0 8.836 1.543 12.062 4.909l-6.17 6.171c-1.894-2.033-3.506-2.875-5.892-2.875-2.174 0-3.857.771-5.189 2.384-1.402 1.753-2.034 4.209-2.034 8.065 0 3.858.632 6.382 2.034 8.135 1.332 1.613 3.015 2.384 5.189 2.384 2.386 0 3.998-.841 5.892-2.875l6.17 6.102c-3.226 3.366-7.012 4.979-12.062 4.979m37.215-.421l-8.977-15.218-3.856 4.348V51.7h-9.117V1.768h9.117v28.331l12.133-14.936h11.009l-13.043 14.726L200.766 51.7h-11.291"/><path fill="#4C2418" d="M221.422 26.103c-.98-2.174-3.014-3.788-6.101-3.788-3.086 0-5.12 1.614-6.1 3.788-.562 1.332-.771 2.314-.841 3.926h13.884c-.07-1.612-.28-2.594-.842-3.926zM208.38 36.272c0 4.698 2.873 8.134 7.993 8.134 3.996 0 5.961-1.122 8.275-3.436l5.54 5.401c-3.716 3.716-7.292 5.75-13.885 5.75-8.626 0-16.9-3.929-16.9-18.725 0-11.922 6.451-18.654 15.918-18.654 10.169 0 15.919 7.433 15.919 17.462v4.068h-22.86zm47.038-11.151c-1.402-1.403-2.594-2.174-4.838-2.174-2.806 0-5.893 2.104-5.893 6.733V51.7h-9.117V15.163h8.908v3.506c1.754-2.104 5.26-3.927 9.186-3.927 3.578 0 6.103.91 8.627 3.437l-6.873 6.942M38.301 55.745c-.526.252-1.241.195-1.983.218-.637.017-1.532.03-1.901-.299-.202-.178-.261-.564-.273-.788-.017-.27.051-.598.108-.898.068-.356.138-.81 0-1.005-.16-.227-.73-.132-1.032-.301-.321-.178-.413-.607-.514-1.085-.034-.151-.124-.29-.139-.409-.09-.733.156-1.718.326-2.472.179-.798.412-1.545.543-2.284.2-1.118.267-2.38.191-3.534-.038-.6-.12-1.073-.027-1.575.088-.47.284-.862.38-1.332.031-.148.006-.325.027-.49.02-.143.104-.261.11-.38.016-.313-.085-.695-.11-1.086-.065-1.049.015-2.526.084-3.424.021-.314.168-.671-.055-.816-1.09-.016-2.084.196-3.1.327-2.732.35-6.17.395-8.805-.137-.249-.05-.5-.055-.734-.108-1.869-.431-3.59-1.233-4.92-2.283-.204-.162-.447-.337-.678-.516-.225-.175-.466-.418-.679-.517-1.066-.495-2.476.076-2.908.76-.173.273-.296.627-.462.952-.16.31-.298.639-.436.952-.701 1.607-1.494 3.142-2.2 4.755-.408.932-.864 1.97-1.169 3.018-.647 2.22-.043 5.195.462 7.283.046.191.148.383.217.597.162.506.504 1.177.897 1.523.205.18.556.288.789.49.291.25.508.745.733 1.168.095.177.226.375.354.597.269.469.363.89-.165 1.168-.395.21-.994.264-1.548.299-.251.064-.172.405-.325.57-.087.095-.459.245-.653.299-.729.212-1.961.199-2.528 0-.284-.099-.607-.317-.68-.542-.141-.444.21-1.007-.108-1.36-.139-.152-.441-.124-.707-.243a1.831 1.831 0 0 1-.924-.98c-.434-1.095-.165-2.814-.217-4.158-.014-.392-.067-.813-.081-1.249-.025-.798-.214-1.578-.299-2.366-.042-.382-.169-.71-.245-1.059-.123-.561-.217-1.17-.38-1.74-.18-.625-.184-1.235.028-1.766.058-.149.214-.286.297-.49a2.41 2.41 0 0 0 .164-.952c-.092-.158-.473-.033-.572-.188-.226-1.719-.485-3.447-.624-5.246-.045-.599-.048-1.226-.109-1.846-.118-1.229-.019-2.48-.136-3.67-.056-.58-.198-1.125-.271-1.686-.208-1.576-.648-3.6-.327-5.244.207-1.056.584-1.912 1.197-2.69.424-.545.884-1.067 1.386-1.551a14.665 14.665 0 0 1 1.603-1.331c.367-.265.757-.573 1.167-.762.913-.416 2.099-.786 3.344-.843 1.252-.052 2.669-.062 3.914.166 1.186.213 2.367.422 3.533.65 1.143.224 2.261.535 3.342.816.14.036.262.122.409.162.344.094.732.115 1.115.217 1.005.275 2.332.409 3.558.409 1.336 0 2.541-.036 3.643-.298.164-.04.29-.125.462-.19.173-.067.382-.055.542-.11.111-.039.227-.158.354-.217a11.73 11.73 0 0 0 1.741-1.005c.446-.314.814-.584 1.41-.816.265-.102.532-.244.788-.326.564-.18 1.175-.347 1.607-.626.675-.433 1.175-1.058 1.738-1.547a49.35 49.35 0 0 1 1.794-1.497c1.248-.995 2.516-1.903 3.695-2.853.596-.48 1.256-.931 1.958-1.331 1.371-.782 2.758-1.704 4.727-1.848.772-.058 1.586-.08 2.366.026.216.031.51.151.707.109.216-.046.373-.372.516-.624.293-.52.502-.867.761-1.496.16-.388.092-.774.488-.761.405.015.336 1.051.353 1.442.024.473-.057 1.11.028 1.439.057.229.362.564.68.57.218.005.365-.175.569-.298.214-.124.411-.199.544-.299.323-.241.707-.643 1.033-.979.27-.276.69-.925 1.143-.869.771.093.005 1.232-.164 1.603-.405.891-.793 1.554-1.249 2.394-.189.345-.623.809-.627 1.167 0 .253.216.419.327.68.052.124.083.258.136.379.266.616.466 1.48.678 2.202.18.608.326 1.249.546 1.848.215.585.524 1.137.761 1.711.06.15.073.336.136.491.497 1.269.977 2.718 1.573 3.94.245.497.575 1.116.573 1.849-.005.809-.424 1.195-.789 1.793-.19.316-.472.797-.759.897-.214.074-.463-.004-.679.027-.305.044-.519.241-.792.272-.737.085-1.399-.491-1.603-1.033-.067-.183-.036-.435-.078-.652-.178-.882-.605-1.308-1.225-1.876-.393-.36-.697-.637-1.196-.897-.693-.36-1.466-.582-2.201-.979-.271-.144-.611-.289-.843-.243-.393.077-.784.715-1.085 1.115-1.918 2.528-3.614 5.125-5.492 7.61-1.241 1.641-2.566 3.309-3.56 5.19-.251.472-.399 1.025-.597 1.577-.195.539-.288 1.137-.491 1.711-.722 2.067-.946 4.583-1.602 6.741-.07.226-.095.486-.163.732-.301 1.101-.603 2.365-.952 3.534-.259.87-.338 2.048-.381 3.208-.04 1.073-.092 2.604.301 3.287.205.362.942.493 1.222.87.193.26.323.772.517 1.115.134.237.519.744.49 1.114-.025.276-.258.47-.465.569-.227.113-.567.044-.785.164-.246.135-.13.434-.383.599"/><path fill="#E26029" d="M303.264 14.742c-4.559 0-7.855 1.403-10.941 4.629-2.314-3.156-5.611-4.629-9.677-4.629-3.366 0-6.732 1.333-9.116 3.787v-3.366h-8.907V51.7h9.117V29.61c0-4.981 3.226-6.663 6.1-6.663 2.876 0 6.033 1.682 6.033 6.663V51.7h9.116V29.4c0-4.771 3.296-6.453 6.1-6.453 2.877 0 6.033 1.682 6.033 6.663V51.7h9.116V28.347c0-3.998-1.052-7.434-3.998-10.379-2.034-2.033-5.33-3.226-8.976-3.226m39.624 22.512c0 4.978-3.226 6.661-6.102 6.661-2.874 0-6.031-1.683-6.031-6.661V15.163h-9.116v23.353c0 3.996.772 7.432 3.716 10.379 2.034 2.034 4.98 3.226 8.627 3.226 3.366 0 6.732-1.262 9.116-3.787V51.7h8.907V15.163h-9.117v22.091m24.037 3.436V1.768h-9.116V41.25c0 5.191 3.156 10.45 10.658 10.45h5.191v-7.714h-3.507c-2.314 0-3.226-1.122-3.226-3.296m17.342-10.661c.07-1.612.28-2.594.84-3.926.982-2.174 3.016-3.788 6.102-3.788 3.086 0 5.118 1.614 6.101 3.788.562 1.332.772 2.314.842 3.926h-13.885zm22.861 2.175c0-10.029-5.75-17.462-15.919-17.462-9.469 0-15.919 6.732-15.919 18.654 0 14.796 8.275 18.725 16.901 18.725 6.593 0 10.169-2.034 13.885-5.75l-5.54-5.401c-2.314 2.314-4.279 3.436-8.275 3.436-5.12 0-7.994-3.436-7.994-8.134h22.861v-4.068z"/></g></svg>

<?xml version="1.0" encoding="UTF-8" standalone="no"?>
<svg width="408px" height="56px" viewBox="0 0 408 56" version="1.1" xmlns="http://www.w3.org/2000/svg" xmlns:xlink="http://www.w3.org/1999/xlink">
    <!-- Generator: Sketch 39.1 (31720) - http://www.bohemiancoding.com/sketch -->
    <title>Slice 1</title>
    <desc>Created with Sketch.</desc>
    <defs></defs>
    <g id="Page-1" stroke="none" stroke-width="1" fill="none" fill-rule="evenodd">
        <g id="sticker-mule-inline-light">
            <path d="M81.956,52.121 C76.206,52.121 71.016,51.489 66.387,46.86 L72.349,40.9 C75.364,43.915 79.292,44.336 82.096,44.336 C85.253,44.336 88.549,43.284 88.549,40.549 C88.549,38.726 87.567,37.464 84.692,37.183 L78.94,36.622 C72.349,35.991 68.282,33.116 68.282,26.383 C68.282,18.809 74.944,14.742 82.376,14.742 C88.058,14.742 92.827,15.724 96.333,19.019 L90.723,24.7 C88.619,22.807 85.393,22.245 82.236,22.245 C78.59,22.245 77.048,23.929 77.048,25.751 C77.048,27.084 77.608,28.627 80.834,28.907 L86.585,29.47 C93.808,30.169 97.455,34.028 97.455,40.198 C97.455,48.264 90.583,52.121 81.956,52.121" id="Fill-1" fill="#4C2418"></path>
            <path d="M113.371,51.7 C105.937,51.7 102.781,46.441 102.781,41.25 L102.781,23.157 L98.925,23.157 L98.925,16.215 L102.781,16.215 L102.781,5.414 L111.898,5.414 L111.898,16.215 L118.35,16.215 L118.35,23.157 L111.898,23.157 L111.898,40.69 C111.898,42.793 112.88,43.986 115.054,43.986 L118.35,43.986 L118.35,51.7 L113.371,51.7" id="Fill-2" fill="#4C2418"></path>
            <path d="M122.541,51.7 L131.659,51.7 L131.659,15.163 L122.541,15.163 L122.541,51.7 Z M122.401,8.92 L131.729,8.92 L131.729,1.488 L122.401,1.488 L122.401,8.92 Z" id="Fill-3" fill="#4C2418"></path>
            <path d="M152.26,52.121 C144.967,52.121 135.921,48.192 135.921,33.396 C135.921,18.599 144.967,14.742 152.26,14.742 C157.31,14.742 161.096,16.285 164.322,19.651 L158.152,25.822 C156.258,23.789 154.646,22.947 152.26,22.947 C150.086,22.947 148.403,23.718 147.071,25.331 C145.669,27.084 145.037,29.54 145.037,33.396 C145.037,37.254 145.669,39.778 147.071,41.531 C148.403,43.144 150.086,43.915 152.26,43.915 C154.646,43.915 156.258,43.074 158.152,41.04 L164.322,47.142 C161.096,50.508 157.31,52.121 152.26,52.121" id="Fill-4" fill="#4C2418"></path>
            <polyline id="Fill-5" fill="#4C2418" points="189.475 51.7 180.498 36.482 176.642 40.83 176.642 51.7 167.525 51.7 167.525 1.768 176.642 1.768 176.642 30.099 188.775 15.163 199.784 15.163 186.741 29.889 200.766 51.7 189.475 51.7"></polyline>
            <path d="M221.422,26.103 C220.442,23.929 218.408,22.315 215.321,22.315 C212.235,22.315 210.201,23.929 209.221,26.103 C208.659,27.435 208.45,28.417 208.38,30.029 L222.264,30.029 C222.194,28.417 221.984,27.435 221.422,26.103 L221.422,26.103 Z M208.38,36.272 C208.38,40.97 211.253,44.406 216.373,44.406 C220.369,44.406 222.334,43.284 224.648,40.97 L230.188,46.371 C226.472,50.087 222.896,52.121 216.303,52.121 C207.677,52.121 199.403,48.192 199.403,33.396 C199.403,21.474 205.854,14.742 215.321,14.742 C225.49,14.742 231.24,22.175 231.24,32.204 L231.24,36.272 L208.38,36.272 L208.38,36.272 Z" id="Fill-6" fill="#4C2418"></path>
            <path d="M255.418,25.121 C254.016,23.718 252.824,22.947 250.58,22.947 C247.774,22.947 244.687,25.051 244.687,29.68 L244.687,51.7 L235.57,51.7 L235.57,15.163 L244.478,15.163 L244.478,18.669 C246.232,16.565 249.738,14.742 253.664,14.742 C257.242,14.742 259.767,15.652 262.291,18.179 L255.418,25.121" id="Fill-7" fill="#4C2418"></path>
            <path d="M38.301,55.745 C37.775,55.997 37.06,55.94 36.318,55.963 C35.681,55.98 34.786,55.993 34.417,55.664 C34.215,55.486 34.156,55.1 34.144,54.876 C34.127,54.606 34.195,54.278 34.252,53.978 C34.32,53.622 34.39,53.168 34.252,52.973 C34.092,52.746 33.522,52.841 33.22,52.672 C32.899,52.494 32.807,52.065 32.706,51.587 C32.672,51.436 32.582,51.297 32.567,51.178 C32.477,50.445 32.723,49.46 32.893,48.706 C33.072,47.908 33.305,47.161 33.436,46.422 C33.636,45.304 33.703,44.042 33.627,42.888 C33.589,42.288 33.507,41.815 33.6,41.313 C33.688,40.843 33.884,40.451 33.98,39.981 C34.011,39.833 33.986,39.656 34.007,39.491 C34.027,39.348 34.111,39.23 34.117,39.111 C34.133,38.798 34.032,38.416 34.007,38.025 C33.942,36.976 34.022,35.499 34.091,34.601 C34.112,34.287 34.259,33.93 34.036,33.785 C32.946,33.769 31.952,33.981 30.936,34.112 C28.204,34.462 24.766,34.507 22.131,33.975 C21.882,33.925 21.631,33.92 21.397,33.867 C19.528,33.436 17.807,32.634 16.477,31.584 C16.273,31.422 16.03,31.247 15.799,31.068 C15.574,30.893 15.333,30.65 15.12,30.551 C14.054,30.056 12.644,30.627 12.212,31.311 C12.039,31.584 11.916,31.938 11.75,32.263 C11.59,32.573 11.452,32.902 11.314,33.215 C10.613,34.822 9.82,36.357 9.114,37.97 C8.706,38.902 8.25,39.94 7.945,40.988 C7.298,43.208 7.902,46.183 8.407,48.271 C8.453,48.462 8.555,48.654 8.624,48.868 C8.786,49.374 9.128,50.045 9.521,50.391 C9.726,50.571 10.077,50.679 10.31,50.881 C10.601,51.131 10.818,51.626 11.043,52.049 C11.138,52.226 11.269,52.424 11.397,52.646 C11.666,53.115 11.76,53.536 11.232,53.814 C10.837,54.024 10.238,54.078 9.684,54.113 C9.433,54.177 9.512,54.518 9.359,54.683 C9.272,54.778 8.9,54.928 8.706,54.982 C7.977,55.194 6.745,55.181 6.178,54.982 C5.894,54.883 5.571,54.665 5.498,54.44 C5.357,53.996 5.708,53.433 5.39,53.08 C5.251,52.928 4.949,52.956 4.683,52.837 C4.304,52.669 3.941,52.314 3.759,51.857 C3.325,50.762 3.594,49.043 3.542,47.699 C3.528,47.307 3.475,46.886 3.461,46.45 C3.436,45.652 3.247,44.872 3.162,44.084 C3.12,43.702 2.993,43.374 2.917,43.025 C2.794,42.464 2.7,41.855 2.537,41.285 C2.357,40.66 2.353,40.05 2.565,39.519 C2.623,39.37 2.779,39.233 2.862,39.029 C2.99,38.723 3.034,38.361 3.026,38.077 C2.934,37.919 2.553,38.044 2.454,37.889 C2.228,36.17 1.969,34.442 1.83,32.643 C1.785,32.044 1.782,31.417 1.721,30.797 C1.603,29.568 1.702,28.317 1.585,27.127 C1.529,26.547 1.387,26.002 1.314,25.441 C1.106,23.865 0.666,21.841 0.987,20.197 C1.194,19.141 1.571,18.285 2.184,17.507 C2.608,16.962 3.068,16.44 3.57,15.956 C4.048,15.494 4.603,15.035 5.173,14.625 C5.54,14.36 5.93,14.052 6.34,13.863 C7.253,13.447 8.439,13.077 9.684,13.02 C10.936,12.968 12.353,12.958 13.598,13.186 C14.784,13.399 15.965,13.608 17.131,13.836 C18.274,14.06 19.392,14.371 20.473,14.652 C20.613,14.688 20.735,14.774 20.882,14.814 C21.226,14.908 21.614,14.929 21.997,15.031 C23.002,15.306 24.329,15.44 25.555,15.44 C26.891,15.44 28.096,15.404 29.198,15.142 C29.362,15.102 29.488,15.017 29.66,14.952 C29.833,14.885 30.042,14.897 30.202,14.842 C30.313,14.803 30.429,14.684 30.556,14.625 C31.192,14.322 31.73,14.016 32.297,13.62 C32.743,13.306 33.111,13.036 33.707,12.804 C33.972,12.702 34.239,12.56 34.495,12.478 C35.059,12.298 35.67,12.131 36.102,11.852 C36.777,11.419 37.277,10.794 37.84,10.305 C38.427,9.79 39.017,9.3 39.634,8.808 C40.882,7.813 42.15,6.905 43.329,5.955 C43.925,5.475 44.585,5.024 45.287,4.624 C46.658,3.842 48.045,2.92 50.014,2.776 C50.786,2.718 51.6,2.696 52.38,2.802 C52.596,2.833 52.89,2.953 53.087,2.911 C53.303,2.865 53.46,2.539 53.603,2.287 C53.896,1.767 54.105,1.42 54.364,0.791 C54.524,0.403 54.456,0.017 54.852,0.03 C55.257,0.045 55.188,1.081 55.205,1.472 C55.229,1.945 55.148,2.582 55.233,2.911 C55.29,3.14 55.595,3.475 55.913,3.481 C56.131,3.486 56.278,3.306 56.482,3.183 C56.696,3.059 56.893,2.984 57.026,2.884 C57.349,2.643 57.733,2.241 58.059,1.905 C58.329,1.629 58.749,0.98 59.202,1.036 C59.973,1.129 59.207,2.268 59.038,2.639 C58.633,3.53 58.245,4.193 57.789,5.033 C57.6,5.378 57.166,5.842 57.162,6.2 C57.162,6.453 57.378,6.619 57.489,6.88 C57.541,7.004 57.572,7.138 57.625,7.259 C57.891,7.875 58.091,8.739 58.303,9.461 C58.483,10.069 58.629,10.71 58.849,11.309 C59.064,11.894 59.373,12.446 59.61,13.02 C59.67,13.17 59.683,13.356 59.746,13.511 C60.243,14.78 60.723,16.229 61.319,17.451 C61.564,17.948 61.894,18.567 61.892,19.3 C61.887,20.109 61.468,20.495 61.103,21.093 C60.913,21.409 60.631,21.89 60.344,21.99 C60.13,22.064 59.881,21.986 59.665,22.017 C59.36,22.061 59.146,22.258 58.873,22.289 C58.136,22.374 57.474,21.798 57.27,21.256 C57.203,21.073 57.234,20.821 57.192,20.604 C57.014,19.722 56.587,19.296 55.967,18.728 C55.574,18.368 55.27,18.091 54.771,17.831 C54.078,17.471 53.305,17.249 52.57,16.852 C52.299,16.708 51.959,16.563 51.727,16.609 C51.334,16.686 50.943,17.324 50.642,17.724 C48.724,20.252 47.028,22.849 45.15,25.334 C43.909,26.975 42.584,28.643 41.59,30.524 C41.339,30.996 41.191,31.549 40.993,32.101 C40.798,32.64 40.705,33.238 40.502,33.812 C39.78,35.879 39.556,38.395 38.9,40.553 C38.83,40.779 38.805,41.039 38.737,41.285 C38.436,42.386 38.134,43.65 37.785,44.819 C37.526,45.689 37.447,46.867 37.404,48.027 C37.364,49.1 37.312,50.631 37.705,51.314 C37.91,51.676 38.647,51.807 38.927,52.184 C39.12,52.444 39.25,52.956 39.444,53.299 C39.578,53.536 39.963,54.043 39.934,54.413 C39.909,54.689 39.676,54.883 39.469,54.982 C39.242,55.095 38.902,55.026 38.684,55.146 C38.438,55.281 38.554,55.58 38.301,55.745" id="Fill-8" fill="#4C2418"></path>
            <path d="M303.264,14.742 C298.705,14.742 295.409,16.145 292.323,19.371 C290.009,16.215 286.712,14.742 282.646,14.742 C279.28,14.742 275.914,16.075 273.53,18.529 L273.53,15.163 L264.623,15.163 L264.623,51.7 L273.74,51.7 L273.74,29.61 C273.74,24.629 276.966,22.947 279.84,22.947 C282.716,22.947 285.873,24.629 285.873,29.61 L285.873,51.7 L294.989,51.7 L294.989,29.4 C294.989,24.629 298.285,22.947 301.089,22.947 C303.966,22.947 307.122,24.629 307.122,29.61 L307.122,51.7 L316.238,51.7 L316.238,28.347 C316.238,24.349 315.186,20.913 312.24,17.968 C310.206,15.935 306.91,14.742 303.264,14.742" id="Fill-9" fill="#E26029"></path>
            <path d="M342.888,37.254 C342.888,42.232 339.662,43.915 336.786,43.915 C333.912,43.915 330.755,42.232 330.755,37.254 L330.755,15.163 L321.639,15.163 L321.639,38.516 C321.639,42.512 322.411,45.948 325.355,48.895 C327.389,50.929 330.335,52.121 333.982,52.121 C337.348,52.121 340.714,50.859 343.098,48.334 L343.098,51.7 L352.005,51.7 L352.005,15.163 L342.888,15.163 L342.888,37.254" id="Fill-10" fill="#E26029"></path>
            <path d="M366.925,40.69 L366.925,1.768 L357.809,1.768 L357.809,41.25 C357.809,46.441 360.965,51.7 368.467,51.7 L373.658,51.7 L373.658,43.986 L370.151,43.986 C367.837,43.986 366.925,42.864 366.925,40.69" id="Fill-11" fill="#E26029"></path>
            <path d="M384.267,30.029 C384.337,28.417 384.547,27.435 385.107,26.103 C386.089,23.929 388.123,22.315 391.209,22.315 C394.295,22.315 396.327,23.929 397.31,26.103 C397.872,27.435 398.082,28.417 398.152,30.029 L384.267,30.029 L384.267,30.029 Z M407.128,32.204 C407.128,22.175 401.378,14.742 391.209,14.742 C381.74,14.742 375.29,21.474 375.29,33.396 C375.29,48.192 383.565,52.121 392.191,52.121 C398.784,52.121 402.36,50.087 406.076,46.371 L400.536,40.97 C398.222,43.284 396.257,44.406 392.261,44.406 C387.141,44.406 384.267,40.97 384.267,36.272 L407.128,36.272 L407.128,32.204 L407.128,32.204 Z" id="Fill-12" fill="#E26029"></path>
        </g>
    </g>
</svg>
